Papirus/24x24/apps/remnote.svg

<svg width="24" height="24" version="1.1" xmlns="http://www.w3.org/2000/svg">
 <rect x="2" y="2.5" width="20" height="20" ry="4.6329193" style="opacity:.2"/>
 <rect x="2" y="2" width="20" height="20" ry="4.6329193" style="fill:#e4e4e4"/>
 <path d="m11.141633 5.5000007c-0.329511 0-0.612348-8.8e-4 -0.738246 0.061232-0.110716 0.054402-0.299745 0.1415835-0.356169 0.248349-0.0641245 0.121364-0.047218 0.279824-0.047218 0.5975995v3.5833415l-2.4259255-2.533286c-0.23304-0.2248215-0.3489015-0.3366345-0.483279-0.378744-0.1181905-0.037075-0.2451475-0.037075-0.3633305 0-0.1343795 0.042125-0.2513985 0.1539225-0.484463 0.378744l-1.2146595 1.1713945c-0.2328845 0.2246675-0.34909 0.3376685-0.392733 0.4671855-0.038425 0.1139385-0.03843 0.236455 0 0.3504075 0.04365 0.129536 0.1598485 0.24138 0.392733 0.466058l2.625689 2.5877178h-3.712173c-0.3295182 0-0.4949905 0.057529-0.6208499 0.119353-0.1107083 0.054412-0.1999286 0.140438-0.2563366 0.247208-0.0641286 0.121343-0.064672 0.239534-0.064672 0.5573v1.286268c0 0.317742 7.05e-4 0.321676 0.064672 0.443006 0.056411 0.106772 0.1456283 0.192822 0.2563366 0.247207 0.1258594 0.06184 0.2913355 0.101238 0.6208499 0.09966h5.441864l1.8625465-2.477138c0.198179-0.314829 0.402437-0.509427 0.753172-0.589724 0.366384 0.02367 0.545082 0.326245 0.753106 0.589724l1.862569 2.477136h5.443037c0.329556 0 0.493769-0.03795 0.619664-0.09966 0.110716-0.05439 0.201112-0.140436 0.257504-0.247207 0.064124-0.121327 0.064679-0.125262 0.064679-0.443004v-1.286268c0-0.317766-6.5e-4 -0.435957-0.06468-0.5573-0.05639-0.106769-0.146789-0.192795-0.257505-0.247208-0.125893-0.061893-0.290106-0.119353-0.619662-0.119353h-3.713373l2.625693-2.5877178c0.232866-0.224678 0.350258-0.3365285 0.393923-0.466058 0.03844-0.1139525 0.03844-0.2364585 0-0.3504075-0.04369-0.129517-0.161057-0.242518-0.393923-0.4671855l-1.21347-1.1713945c-0.233065-0.224825-0.350077-0.3366345-0.484468-0.378744-0.118238-0.037075-0.245158-0.037075-0.363325 0-0.134389 0.042125-0.251425 0.153919-0.484465 0.378744l-2.424745 2.533286v-3.5833415c0-0.3177755 0.017535-0.4762355-0.04647-0.5975995-0.05642-0.1067655-0.146789-0.193947-0.257499-0.248349-0.125898-0.0618395-0.508154-0.061232-0.837665-0.061232zm3.473483 9.9999993h-5.2313935l-1.6544315 2.547395c-0.363451 0.467479-0.545128 0.701359-0.5408935 0.896957 0.0038 0.170288 0.085545 0.330486 0.2245815 0.435456 0.1598045 0.120648 0.4629665 0.120192 1.0688525 0.120192h7.0351515c0.605892 0 0.909076 4.89e-4 1.068852-0.120192 0.139014-0.10497 0.222048-0.265168 0.225769-0.435456 0.0041-0.195598-0.177434-0.429478-0.540894-0.896957z" style="fill-rule:evenodd;opacity:.2;stop-color:#000000"/>
 <path d="m11.141633 5.0000005c-0.329511 0-0.612348-8.8e-4 -0.738246 0.061232-0.110716 0.054402-0.299745 0.1415835-0.356169 0.248349-0.0641245 0.121364-0.047218 0.279824-0.047218 0.5975995v3.5833415l-2.4259255-2.533286c-0.23304-0.2248215-0.3489015-0.3366345-0.483279-0.378744-0.1181905-0.037075-0.2451475-0.037075-0.3633305 0-0.1343795 0.042125-0.2513985 0.1539225-0.484463 0.378744l-1.2146595 1.1713945c-0.2328845 0.2246675-0.34909 0.3376685-0.392733 0.4671855-0.038425 0.1139385-0.03843 0.236455 0 0.3504075 0.04365 0.129536 0.1598485 0.24138 0.392733 0.466058l2.625689 2.587718h-3.712173c-0.3295182 0-0.4949905 0.057529-0.6208499 0.119353-0.1107083 0.054412-0.1999286 0.140438-0.2563366 0.247208-0.0641286 0.121343-0.064672 0.239534-0.064672 0.5573v1.286268c0 0.317742 7.05e-4 0.321676 0.064672 0.443006 0.056411 0.106772 0.1456283 0.192822 0.2563366 0.247207 0.1258594 0.061835 0.2913355 0.101238 0.6208499 0.099658h5.441864l1.8625465-2.477138c0.198179-0.314829 0.402437-0.509427 0.753172-0.589724 0.366384 0.02367 0.545082 0.326245 0.753106 0.589724l1.862569 2.477138h5.443037c0.329556 0 0.493769-0.03795 0.619664-0.09966 0.110716-0.05439 0.201112-0.140436 0.257504-0.247207 0.064124-0.121327 0.064679-0.125262 0.064679-0.443004v-1.286268c0-0.317766-6.5e-4 -0.435957-0.06468-0.5573-0.05639-0.106769-0.146789-0.192795-0.257505-0.247208-0.125893-0.061893-0.290106-0.119353-0.619662-0.119353h-3.713373l2.625693-2.587718c0.232866-0.224678 0.350258-0.3365285 0.393923-0.466058 0.03844-0.1139525 0.03844-0.2364585 0-0.3504075-0.04369-0.129517-0.161057-0.242518-0.393923-0.4671855l-1.21347-1.1713945c-0.233065-0.224825-0.350077-0.3366345-0.484468-0.378744-0.118238-0.037075-0.245158-0.037075-0.363325 0-0.134389 0.042125-0.251425 0.153919-0.484465 0.378744l-2.424745 2.533286v-3.5833415c0-0.3177755 0.017535-0.4762355-0.04647-0.5975995-0.05642-0.1067655-0.146789-0.193947-0.257499-0.248349-0.125898-0.0618395-0.508154-0.061232-0.837665-0.061232zm3.473483 9.9999995h-5.2313935l-1.6544315 2.547395c-0.363451 0.467479-0.545128 0.701359-0.5408935 0.896957 0.0038 0.170288 0.085545 0.330486 0.2245815 0.435456 0.1598045 0.120648 0.4629665 0.120192 1.0688525 0.120192h7.0351515c0.605892 0 0.909076 4.89e-4 1.068852-0.120192 0.139014-0.10497 0.222048-0.265168 0.225769-0.435456 0.0041-0.195598-0.177434-0.429478-0.540894-0.896957z" style="fill-rule:evenodd;fill:#506cf7;stop-color:#000000"/>
 <path d="m11.142578 5c-0.329511 0-0.612383-0.0015651-0.738281 0.0605469-0.110716 0.054402-0.300998 0.1432345-0.357422 0.25-0.0641245 0.121364-0.046875 0.2779276-0.046875 0.5957031v0.1289062c0.003789-0.0945074 0.014813-0.1639273 0.046875-0.2246093 0.056424-0.1067655 0.246706-0.195598 0.357422-0.25 0.125898-0.062112 0.40877-0.0605469 0.738281-0.0605469h1.714844c0.329511 0 0.711993-0.0012926 0.83789 0.0605469 0.11071 0.054402 0.201393 0.1432345 0.257813 0.25 0.032002 0.060682 0.043258 0.1301019 0.046875 0.2246093v-0.1289062c0-0.3177755 0.01713-0.4743391-0.046875-0.5957031-0.05642-0.1067655-0.147103-0.195598-0.257813-0.25-0.125897-0.0618395-0.508379-0.0605469-0.83789-0.0605469h-1.714844zm-4.2343749 1.5507812c-0.0612859 1e-7 -0.1225491 0.0088063-0.1816406 0.0273438-0.1343795 0.042125-0.2513105 0.1540847-0.484375 0.3789062l-1.2128906 1.171875c-0.2328845 0.2246676-0.3508883 0.3372799-0.3945313 0.4667969-0.038425 0.1139385-0.03843 0.2356569 0 0.3496094 0.0084681 0.02513 0.0228582 0.0514206 0.0371094 0.0761719 0.0591538-0.1032198 0.1695019-0.2112887 0.3574219-0.3925782l1.2128906-1.171875c0.2330645-0.2248215 0.3499955-0.3367812 0.484375-0.3789062 0.118183-0.037075 0.2450908-0.037075 0.3632813 0 0.1343774 0.0421095 0.251335 0.1540847 0.484375 0.3789062l2.4257812 2.5332032v-0.5l-2.4257812-2.5332032c-0.23304-0.2248215-0.3499976-0.3367967-0.484375-0.3789062-0.0590953-0.0185375-0.1203547-0.0273438-0.1816407-0.0273438zm10.183594 0c-0.061281 0-0.122557 0.0088063-0.181641 0.0273438-0.134389 0.042125-0.253288 0.1540812-0.486328 0.3789062l-2.423828 2.5332032v0.5l2.423828-2.5332032c0.23304-0.224825 0.351939-0.3367812 0.486328-0.3789062 0.118167-0.037075 0.245043-0.037075 0.363282 0 0.134391 0.0421095 0.25131 0.1540812 0.484374 0.3789062l1.212891 1.171875c0.187905 0.1812895 0.297952 0.2893584 0.357422 0.3925782 0.014325-0.0247509 0.028638-0.0510432 0.037109-0.0761719 0.03844-0.1139525 0.03844-0.2356604 0-0.3496094-0.04369-0.129517-0.161665-0.2421294-0.394531-0.4667969l-1.212891-1.171875c-0.233064-0.224825-0.349983-0.3367967-0.484374-0.3789062-0.05912-0.0185375-0.12036-0.0273438-0.181641-0.0273438zm-13.150391 5.4492188c-0.3295181 0-0.4952343 0.057317-0.6210937 0.119141-0.1107083 0.054412-0.1994514 0.141277-0.2558594 0.248047-0.0641286 0.121342-0.0644531 0.238874-0.0644531 0.55664v0.5c0-0.317766 3.245e-4 -0.435298 0.0644531-0.55664 0.056408-0.10677 0.1451511-0.193635 0.2558594-0.248047 0.1258594-0.061824 0.2915756-0.119141 0.6210937-0.119141h3.7128907l-0.5078125-0.5h-3.2050782zm12.91211 0-0.507813 0.5h3.712891c0.329556 0 0.493247 0.057248 0.61914 0.119141 0.110716 0.054413 0.201423 0.141277 0.257813 0.248047 0.06403 0.121342 0.064453 0.238874 0.064453 0.55664v-0.5c0-0.317766-4.23e-4 -0.435298-0.064453-0.55664-0.05639-0.10677-0.147097-0.193634-0.257813-0.248047-0.125893-0.061893-0.289584-0.119141-0.61914-0.119141h-3.205078zm-7.0937504 3-0.3769531 0.5h5.2324215l-0.376953-0.5h-4.4785154zm4.8554684 0.5 1.65625 2.546875c0.234017 0.300991 0.382653 0.500712 0.464844 0.660156 0.045777-0.079789 0.074134-0.168465 0.076172-0.261719 0.0041-0.195598-0.177556-0.430958-0.541016-0.898437l-1.332031-2.046875h-0.324219zm-5.2324215 0h-0.3242187l-1.3300782 2.046875c-0.363451 0.467479-0.5452501 0.70284-0.5410156 0.898437 0.002081 0.093254 0.0307325 0.18193 0.0761719 0.261719 0.0821964-0.159444 0.2308324-0.359165 0.4648437-0.660156l1.6542969-2.546875z" style="fill-rule:evenodd;fill:#ffffff;opacity:.2;stop-color:#000000"/>
 <path d="M 6.6328125,2 C 4.0661752,2 2,4.0661752 2,6.6328125 v 0.5 C 2,4.5661752 4.0661752,2.5 6.6328125,2.5 H 17.367187 C 19.933825,2.5 22,4.5661752 22,7.1328125 v -0.5 C 22,4.0661752 19.933825,2 17.367187,2 Z" style="fill:#ffffff;opacity:.2"/>
</svg>

<svg xmlns="http://www.w3.org/2000/svg" width="24" height="24" version="1.1">
 <rect style="opacity:0.2" width="20" height="20" x="2" y="2.5" rx="4.6" ry="4.6"/>
 <rect style="fill:#e4e4e4" width="20" height="20" x="2" y="2" rx="4.6" ry="4.6"/>
 <path style="opacity:0.2;fill:#ffffff" d="M 6.5996,2 C 4.0512,2 2,4.0512 2,6.5996 V 7.0996 C 2,4.5512 4.0512,2.5 6.5996,2.5 H 17.4 C 19.949,2.5 22,4.5512 22,7.0996 V 6.5996 C 22,4.0512 19.949,2 17.4,2 Z"/>
 <path style="opacity:0.2" d="M 11.14,5.5 C 10.81,5.5 10.53,5.5 10.4,5.56 10.29,5.62 10.1,5.7 10.05,5.81 9.98,5.93 10,6.09 10,6.41 V 9.99 L 7.57,7.46 C 7.34,7.23 7.23,7.12 7.09,7.08 6.97,7.04 6.85,7.04 6.73,7.08 6.59,7.12 6.48,7.23 6.24,7.46 L 5.03,8.63 C 4.8,8.85 4.68,8.97 4.64,9.1 4.6,9.21 4.6,9.33 4.64,9.45 4.68,9.58 4.8,9.69 5.03,9.91 L 7.65,12.5 H 3.94 C 3.61,12.5 3.45,12.56 3.32,12.62 3.21,12.67 3.12,12.76 3.06,12.87 3,12.99 3,13.11 3,13.42 V 14.71 C 3,15.03 3,15.03 3.06,15.15 3.12,15.26 3.21,15.35 3.32,15.4 3.45,15.46 3.61,15.5 3.94,15.5 H 9.38 L 11.25,13.02 C 11.44,12.71 11.65,12.51 12,12.43 12.37,12.46 12.54,12.76 12.75,13.02 L 14.62,15.5 H 20.06 C 20.39,15.5 20.55,15.46 20.68,15.4 20.79,15.35 20.88,15.26 20.93,15.15 21,15.03 21,15.03 21,14.71 V 13.42 C 21,13.11 21,12.99 20.93,12.87 20.88,12.76 20.79,12.67 20.68,12.62 20.55,12.56 20.39,12.5 20.06,12.5 H 16.34 L 18.97,9.91 C 19.2,9.69 19.32,9.58 19.36,9.45 19.4,9.33 19.4,9.21 19.36,9.1 19.32,8.97 19.2,8.85 18.97,8.63 L 17.76,7.46 C 17.52,7.23 17.41,7.12 17.27,7.08 17.15,7.04 17.03,7.04 16.91,7.08 16.77,7.12 16.66,7.23 16.43,7.46 L 14,9.99 V 6.41 C 14,6.09 14.02,5.93 13.95,5.81 13.9,5.7 13.81,5.62 13.7,5.56 13.57,5.5 13.19,5.5 12.86,5.5 Z M 14.62,15.5 H 9.38 L 7.73,18.05 C 7.37,18.52 7.18,18.75 7.19,18.94 7.19,19.11 7.27,19.27 7.41,19.38 7.57,19.5 7.88,19.5 8.48,19.5 H 15.52 C 16.12,19.5 16.43,19.5 16.59,19.38 16.73,19.27 16.81,19.11 16.81,18.94 16.82,18.75 16.63,18.52 16.27,18.05 Z"/>
 <path style="fill:#506cf7" d="M 11.14,5 C 10.81,5 10.53,5 10.4,5.06 10.29,5.12 10.1,5.2 10.05,5.31 9.98,5.43 10,5.59 10,5.91 V 9.49 L 7.57,6.96 C 7.34,6.73 7.23,6.62 7.09,6.58 6.97,6.54 6.85,6.54 6.73,6.58 6.59,6.62 6.48,6.73 6.24,6.96 L 5.03,8.13 C 4.8,8.35 4.68,8.47 4.64,8.6 4.6,8.71 4.6,8.83 4.64,8.95 4.68,9.08 4.8,9.19 5.03,9.41 L 7.65,12 H 3.94 C 3.61,12 3.45,12.06 3.32,12.12 3.21,12.17 3.12,12.26 3.06,12.37 3,12.49 3,12.61 3,12.92 V 14.21 C 3,14.53 3,14.53 3.06,14.65 3.12,14.76 3.21,14.85 3.32,14.9 3.45,14.96 3.61,15 3.94,15 H 9.38 L 11.25,12.52 C 11.44,12.21 11.65,12.01 12,11.93 12.37,11.96 12.54,12.26 12.75,12.52 L 14.62,15 H 20.06 C 20.39,15 20.55,14.96 20.68,14.9 20.79,14.85 20.88,14.76 20.93,14.65 21,14.53 21,14.53 21,14.21 V 12.92 C 21,12.61 21,12.49 20.93,12.37 20.88,12.26 20.79,12.17 20.68,12.12 20.55,12.06 20.39,12 20.06,12 H 16.34 L 18.97,9.41 C 19.2,9.19 19.32,9.08 19.36,8.95 19.4,8.83 19.4,8.71 19.36,8.6 19.32,8.47 19.2,8.35 18.97,8.13 L 17.76,6.96 C 17.52,6.73 17.41,6.62 17.27,6.58 17.15,6.54 17.03,6.54 16.91,6.58 16.77,6.62 16.66,6.73 16.43,6.96 L 14,9.49 V 5.91 C 14,5.59 14.02,5.43 13.95,5.31 13.9,5.2 13.81,5.12 13.7,5.06 13.57,5 13.19,5 12.86,5 Z M 14.62,15 H 9.38 L 7.73,17.55 C 7.37,18.02 7.18,18.25 7.19,18.44 7.19,18.61 7.27,18.77 7.41,18.88 7.57,19 7.88,19 8.48,19 H 15.52 C 16.12,19 16.43,19 16.59,18.88 16.73,18.77 16.81,18.61 16.81,18.44 16.82,18.25 16.63,18.02 16.27,17.55 Z"/>
 <path style="opacity:0.2;fill:#ffffff" d="M 11.141,5 C 10.811,5 10.53,5.0005 10.4,5.0605 10.29,5.1205 10.101,5.2005 10.051,5.3105 9.9808,5.4305 10,5.5902 10,5.9102 V 6.0176 C 10.005,5.9325 10.018,5.8663 10.051,5.8105 10.101,5.7005 10.29,5.6205 10.4,5.5605 10.53,5.5005 10.811,5.5 11.141,5.5 H 12.859 C 13.189,5.5 13.569,5.5005 13.699,5.5605 13.809,5.6205 13.899,5.7005 13.949,5.8105 13.982,5.8663 13.995,5.9325 14,6.0176 V 5.9102 C 14,5.5902 14.019,5.4305 13.949,5.3105 13.899,5.2005 13.809,5.1205 13.699,5.0605 13.569,5.0005 13.189,5 12.859,5 Z M 6.9102,6.5508 C 6.8502,6.5508 6.7905,6.5601 6.7305,6.5801 6.5905,6.6201 6.4802,6.7309 6.2402,6.9609 L 5.0293,8.1309 C 4.7993,8.3509 4.6806,8.4696 4.6406,8.5996 4.6006,8.7096 4.6006,8.8292 4.6406,8.9492 4.6484,8.9745 4.6618,8.9987 4.6758,9.0234 4.734,8.9186 4.8442,8.8079 5.0293,8.6309 L 6.2402,7.4609 C 6.4802,7.2309 6.5905,7.1201 6.7305,7.0801 6.8505,7.0401 6.9698,7.0401 7.0898,7.0801 7.2298,7.1201 7.3403,7.2309 7.5703,7.4609 L 10,9.9902 V 9.4902 L 7.5703,6.9609 C 7.3403,6.7309 7.2298,6.6201 7.0898,6.5801 7.0298,6.5601 6.9702,6.5508 6.9102,6.5508 Z M 17.09,6.5508 C 17.03,6.5508 16.97,6.5601 16.91,6.5801 16.77,6.6201 16.66,6.7309 16.43,6.9609 L 14,9.4902 V 9.9902 L 16.43,7.4609 C 16.66,7.2309 16.77,7.1201 16.91,7.0801 17.03,7.0401 17.15,7.0401 17.27,7.0801 17.41,7.1201 17.52,7.2309 17.76,7.4609 L 18.971,8.6309 C 19.156,8.8079 19.266,8.9186 19.324,9.0234 19.338,8.9987 19.352,8.9745 19.359,8.9492 19.399,8.8292 19.399,8.7096 19.359,8.5996 19.319,8.4696 19.201,8.3509 18.971,8.1309 L 17.76,6.9609 C 17.52,6.7309 17.41,6.6201 17.27,6.5801 17.21,6.5601 17.15,6.5508 17.09,6.5508 Z M 3.9395,12 C 3.6095,12 3.4503,12.059 3.3203,12.119 3.2103,12.169 3.1205,12.259 3.0605,12.369 3.0005,12.489 3,12.61 3,12.92 V 13.42 C 3,13.11 3.0005,12.989 3.0605,12.869 3.1205,12.759 3.2103,12.669 3.3203,12.619 3.4503,12.559 3.6095,12.5 3.9395,12.5 H 7.6504 L 7.1445,12 Z M 16.848,12 16.34,12.5 H 20.061 C 20.391,12.5 20.55,12.559 20.68,12.619 20.79,12.669 20.88,12.759 20.93,12.869 21,12.989 21,13.11 21,13.42 V 12.92 C 21,12.61 21,12.489 20.93,12.369 20.88,12.259 20.79,12.169 20.68,12.119 20.55,12.059 20.391,12 20.061,12 Z M 9.7578,15 9.3809,15.5 H 14.619 L 14.242,15 Z M 14.619,15.5 16.27,18.051 C 16.5,18.352 16.653,18.548 16.736,18.705 16.782,18.624 16.811,18.534 16.811,18.439 16.821,18.249 16.63,18.021 16.27,17.551 L 14.943,15.5 Z M 9.3809,15.5 H 9.0566 L 7.7305,17.551 C 7.3705,18.021 7.1795,18.249 7.1895,18.439 7.1895,18.534 7.2178,18.624 7.2637,18.705 7.3469,18.548 7.4999,18.352 7.7305,18.051 Z"/>
</svg>
